X:1
T:Malagueña
T:Malagueña
T:Para cuarteto de cuerdas
T:Pablo de Sarasate
T:arr. Francisco Alvarez
C:Pablo de Sarasate
Z:arr. Francisco Alvarez
%%score [ 1 2 3 4 ]
L:1/8
Q:1/4=70
M:3/8
K:D
V:1 treble nm="Violin I"
V:2 treble nm="Violin II"
V:3 alto nm="Viola"
V:4 bass nm="Violoncello"
V:1
"^\n""^Andantino""_molto dolce" z3 | z3 | z3 | z3 ||"^IV"!<(!{D-E} (DC)(D | E)FE!<)! | (D3- | %7
!>(! D(3_B,/=C/B,/) (3(B,/C/)B,/!>)! |!p! A,3- | A,2 z |!<(!{DE} (DC)(D | E)FE!<)! |!>(! (D3- | %13
 D(3_B,/=C/B,/) (3(B,/C/)B,/!>)! | A,3- |!p! A,2 z |!f! (FE)(C | D)B,D |"^poco riten."!>(! (F3- | %19
 F-F/E/4D/4(C/D/4)C/4)!>)! |!p! B,3- | B,2 z |!f!"^a tempo" (ED)(B, | C)A,C |!>(! E3- | %25
"^poco rit." E-E/D/4C/4B,/C/4B,/4 | A,3-!>)! |!p! A,2 z |!f!"^a tempo" AAA | (^GE)(=G | F)D=F | %31
 (^G,-(3G,/B,/A,/(3G,/A,/B,/) | (A,3- | A,3 | A)!pp!AA | (^GE)(=G | F)D=F | %37
 (^G,-(3G,/B,/"^poco rit."A,/(3G,/A,/B,/) | A,3- | A,2"_cresc." A,/A,/ |"^a tempo"({DE)} (DC)(D | %41
 E)DE | (=F3- |"^poco riten." F(3!>!_D/_E/_D/)(3!>!D/E/D/ | =C3- | C2 =C/C/ | %46
"^a tempo""_cresc."({=FG)} (FE)(F | G)=FG |!>(! A3- |"^poco riten." A-A/G/4F/4(E/F/4)E/4 | D3- | %51
"^a tempo" D3-!>)! |!p! D3- | D2 z |"^pizz."!mf! [DAf] a/!plus!f/a/!plus!f/ | [DA]"^arco" (.a.f) | %56
"^pizz." [D_Bg] _b/!plus!g/b/!plus!g/ | [D_B]"^arco" (._b.g) |"^pizz." [DAf] a/!plus!f/a/!plus!f/ | %59
 [Dd]/!plus!A/ a/!plus!f/a/!plus!f/ |"^pizz." [D_Bg] _b/g/b/g/ | %61
 [Dd]/!plus!_B/ _b/!plus!g/b/!plus!g/ |"^pizz." [DAf] a/!plus!f/ d | %63
 A/!plus!F/ !plus!D"^pizz." [DAf] | [D_Bg] _b/!plus!g/ d | _B/!plus!G/ !plus!D"^pizz." [DBg] | %66
 [DAf] a/!plus!f/d/!plus!A/ | F/!plus!D/a/!plus!f/d/!plus!A/ | %68
"^pizz." [D_Bg] _b/!plus!g/d/!plus!B/ | G/!plus!D/_B,/!plus!G,/ _b/!plus!g/ | %70
"^pizz." [DAf] a/4!plus!g/4!plus!f/4!plus!e/4 d/ z/ | %71
 A/4!plus!G/4!plus!F/4!plus!E/4 !plus!D/ z/"^pizz." [DAf] | %72
 [D_Bg]d/4!plus!=c/4!plus!B/4!plus!A/4 G/ z/ | %73
 D/4!plus!=C/4!plus!_B,/4!plus!A,/4 !plus!G,/ z/"^arco" [D_Bg] |!ff! v[Ddd'] vF v[AA] | %75
 v[Ddd'] vG v[AA] | v[Ddd'] vF v[AA] | v[Ddd'] vG v[AA] | %78
"_dim." (d2-"^poco riten." d/4_e/4d/4=c/4) | (d2- d/4_e/4d/4=c/4) | (!fermata!d3- | %81
 d/.d/)"_grazioso""^Tempo primo"g/a/b/=c'/ | d'2 (3(b/=c'/b/ | g) (bg) | z{b=c'} ba/g/ | %85
!p! a2 (3(f/g/f/ | d)(=c'a) | z e'd'/=c'/ | b-(3b/(=c'/b/(3a/b/a/ | g/"_cresc.".g/)a/b/=c'/d'/ | %90
 e'2 (3(d'/e'/d'/ | =c') (E=C) | z!p! e'd'/=c'/ | d'-(3d'/(e'/d'/(3=c'/d'/c'/ | %94
 b/)(d'/4e'/4 =c'/4d'/4b/4c'/4 a/4b/4g/4b/4) | %95
{ab} (a/4^g/4a/4b/4{=c'd'} c'/4b/4c'/4d'/4 e'/z/4=g/4) | (b-(3b/=c'/b/(3a/b/a/ | %97
 g/)!f! (.G,/.A,/.B,/.=C/.D/) | E2 (3(D/E/D/ | =C)!p!(e=c) | z!f! vED/=C/ | (D-(3D/E/D/(3=C/D/C/ | %102
 B,/)!p! (d/=c/B/A/G/) | (A/_B/4=B/4 =c/4^c/4d/4^d/4 e/z/4G/4) | B2 (A | G)!f!g'g | %106
 z/!p! (.G/.E/.=C/)E/A/ | =C g'g | z/ (.G/.E/)"^poco rit."(=C/E/A/) | =C3- | C/!p! d/g/a/(b/=c'/) | %111
 (d'/4e'/4d'/4e'/4 d'/4e'/4d'/4b/4) (b/4=c'/4b/4g/4) | %112
 (g/4a/4g/4B/4) (B/4=c/4B/4G/4) (G/4A/4G/4G,/4) | (G,/4A,/4G,/4B,/4 D/4G/4B/4d/4 g/4b/4a/4g/4) | %114
 (a/4b/4a/4b/4 a/4b/4a/4f/4) (f/4g/4f/4d/4) | (d/4e/4d/4=c'/4) (c'/4d'/4c'/4a/4) (a/4b/4a/4d/4) | %116
 (D/4E/4D/4F/4 A/4d/4f/4a/4 =c'/4e'/4d'/4c'/4) | (b/4=c'/4b/4c'/4 b/4c'/4b/4a/4) (a/4b/4a/4g/4) | %118
 .g/4"_cresc."(g/4f/4g/4 a/4g/4b/4a/4 =c'/4b/4d'/4c'/4) | %119
!>(! (e'/4=f'/4e'/4f'/4 e'/4f'/4e'/4d'/4) (d'/4e'/4d'/4=c'/4)!>)! | %120
 (=c'/4d'/4c'/4e/4) (e/4=f/4e/4=c/4) (c/4d/4c/4E/4) | %121
 (G,/4=C/4E/4G/4 B/4=c/4e/4g/4 =c'/4e'/4d'/4c'/4) | %122
 (d'/4e'/4d'/4e'/4 d'/4e'/4d'/4=c'/4) (c'/4d'/4c'/4b/4) | %123
 (b/4=c'/4b/4d'/4 c'/4d'/4b/4c'/4 a/4b/4g/4b/4) | %124
({ab} a/4^g/4a/4b/4{=c'd'} c'/4b/4c'/4d'/4 e'/4d'/4e'/4=g/4) | %125
 (b/4=c'/4b/4c'/4 b/4c'/4b/4a/4) (a/4b/4a/4g/4) | %126
 .g/4"_cresc."(g/4f/4g/4 a/4g/4b/4a/4 =c'/4b/4d'/4c'/4) | %127
!>(! (e'/4=f'/4e'/4f'/4 e'/4f'/4e'/4d'/4) (d'/4e'/4d'/4=c'/4)!>)! | %128
 (=c'/4d'/4c'/4e/4) (e/4=f/4e/4=c/4) (c/4d/4c/4E/4) | %129
 (G,/4=C/4E/4G/4 B/4=c/4e/4g/4 =c'/4e'/4d'/4c'/4) | %130
 (d'/4e'/4d'/4e'/4 d'/4e'/4d'/4=c'/4) (c'/4d'/4c'/4b/4) | %131
 (b/4=c'/4b/4d'/4 c'/4d'/4b/4c'/4 a/4b/4g/4b/4) | %132
({ab} a/4^g/4a/4b/4{=c'd'} c'/4b/4c'/4d'/4 e'/4d'/4e'/4=g/4) | %133
 (b/4=c'/4b/4c'/4 b/4c'/4b/4a/4) (a/4b/4a/4g/4) | %134
!<(! (g/4a/4g/4g'/4)!<)!!>(! (g'/4a'/4g'/4g/4) (g/4a/4g/4c/4)!>)! | %135
 (d/4D/4F/4G/4 B/4d/4f/4g/4 b/4g/4b/4a/4) | %136
!<(! (g/4a/4g/4g'/4) (g'/4!<)!!>(!a'/4g'/4g/4) (g/4a/4g/4c/4)!>)! | %137
 (d/4D/4F/4G/4 B/4d/4B/4G/4 F/4D/4=C/4A,/4) | %138
!pp! (G,/4A,/4G,/4G/4) (G/4A/4G/4G,/4) (G,/4A,/4G,/4G/4) | %139
 (G/4A/4G/4G,/4 B,/4D/4G/4B/4 D/4=C/4E/4G/4) | =C3 |!p!!<(!({d'e'} d'c')(d' | e')f'e' | (d'3- | %144
 d'!<)!!>(!(3_b/=c'/b/)(3b/c'/b/ | a3-!>)! |!p! a2 z |!<(!({d'e'} d'c')(d' | e')f'e' | (d'3-!<)! | %150
!>(! d'(3_b/=c'/b/)(3(b/c'/)b/ | a3- | a2!>)! z |!f! (f'e')(c' | d')bd' |!>(! (f'3- | %156
 f'-f'/e'/4d'/4c'/d'/4c'/4) | b3-!>)! | b2 z |!f! (e'd')(b | c')ac' |!>(! (e'3- | %162
 e'-e'/d'/4c'/4b/c'/4b/4) | a3-!>)! |!p! a2 z |!f! a'a'a' | (^g'e')(=g' | f')d'=f' | %168
 (^g-(3g/b/a/(3g/a/b/) | (a3- | a3 |!p! a')a'a' | (^g'e')(=g' | f')d'=f' | (^g-(3g/b/a/(3g/a/b/) | %175
 a3- | a2 A,/A,/ |{DE} (DC)(D | E)DE |!>(! (=F3- | F(3!>!_D/_E/_D/)(3!>!D/E/D/!>)! |!p! =C3- | %182
 C2 =C/C/ |"_cresc."{=FG} (FE)(F | G)=FG |!f! (A3- | A-A/"_dim."G/4F/4E/F/4E/4) |!p! (D3- | %188
 D- D/>=c/ _B/4A/4B/4c/4) | (d3- | d- d/>e/ f/4g/4f/4e/4) |{/D} (d3- | d- d/>=c'/ _b/4a/4b/4c'/4) | %193
 (d'3- | d'- d'/>e'/ f'/4g'/4f'/4e'/4) |!pp! (d'/4f'/4a'/4f'/4 d'/4a/4f/4d/4 A/4F/4D/4A,/4 | %196
 G,/4_B,/4C/4E/4 G/4_B/4c/4e/4 g/4_b/4a/4g/4) | (d'/4f'/4a'/4f'/4 d'/4a/4f/4d/4 A/4F/4D/4A,/4 | %198
 G,/4_B,/4C/4E/4 G/4_B/4c/4e/4 g/4_b/4a/4g/4) | (d/4A/4d/4e/4 f/4d/4f/4g/4 a/4f/4a/4d'/4 | %200
 d'/4a/4d'/4e'/4!8va(! f'/4d'/4f'/4g'/4 a'/4f'/4a'/4d''/4) | !trill(!Td''3- | %202
 !trill)!d''2-{/c''} d''/!8va)! z/ |"^pizz." D/ z/ z2 |] %204
V:2
 z!pp! [A,D][A,D] | z [_B,D][B,D] | z [A,D][A,D] | z [_B,D][B,D] || z!pp! [A,D][A,D] | %5
 z [_B,D][B,D] | z [A,D][A,D] | z [_B,D][B,D] | z [A,D][A,D] | z [A,D][A,D] | z [A,D][A,D] | %11
 z [_B,D][B,D] | z [A,D][A,D] | z [_B,D][B,D] | z [A,D][A,D] | z [A,D][A,D] | z [CF][CF] | %17
 z [DF][DF] | z [DF][DF] | z [CF][CF] | z [DF][DF] | z [DF][DF] | z [B,E][B,E] | z [CE][CE] | %24
 z [CE][CE] | z [B,E][B,E] | z [CE][CE] | z [CE][CE] | z [CA][CA] | z [B,^G][A,=G] | %30
 z [A,F][A,=F] | z [B,E][B,E] | z [CE][CE] | z [CE][CE] | z [CA][CA] | z [B,^G][A,=G] | %36
 z [A,F][A,=F] | z [B,E][B,E] | z [CE][CE] | z [CE][CE] | z [A,D][A,D] | z [_B,E][B,E] | %42
 z [A,=F][A,F] | z [_D=F][DF] | z [A,=F][A,F] | z [A,=F][A,F] | z [A,=F][A,F] | z [EG][EG] | %48
 z [FA][FA] | z [A,G][A,G] | z [A,F]2- | [A,F]G,/A,/_B,/=C/ | z [A,F]2- | [A,F]G,/A,/_B,/=C/ | %54
 D z2 | z2 D | GGG | (3(G/A/G/)(.F.G) | A2 F | D2 D | =CCC | (3(=C/D/C/)(._B,.C) | D3- | D2 D | %64
 G_BA | (3(G/A/G/)(.F.G) | A2 F | D2 D | =CCC | (3(=C/D/C/)(._B,.C) | D/ z/ ([Fd]/D/[Fd]/) z/ | %71
 z ([Fd]/D/[Fd]/) z/ | z ([G_e]/_E/[Ge]/) z/ | z ([G_e]/_E/[Ge]/) z/ | [Fd] z2 | [Gd] z2 | %76
 [Fd] z2 | [Gd] z2 | [Fd] z2 | z3 | !fermata!z3 | z3 | z [Bd] z | z [Bd] z | z [Bd] z | z [=cd] z | %86
 z [=cd] z | z [=cd] z | z [Bd] z | z [Bd] z | z [=ce] z | z [=ce] z | z [=ce] z | z [Bd] z | %94
 z [Bd] z | z [A=c]2 | z [DB][D=c] | [DB] z2 | z [=ce] z | z [=ce] z | z [=ce] z | z [Bd] z | %102
 z [Bd] z | z [A=c] z | z [GB][F=c] | [GB] z [_Bc] | [Bd] z [F=c] | [GB] z [_Bc] | [Bd] z [=CF] | %109
 [B,G]G, z | z3 | z!pp! [GB] z | z [GB] z | z [GB] z | z [F=c] z | z [F=c] z | z [F=c] z | %117
 z [GB] z | z [GB] z | z [G=c] z | z [G=c] z | z [G=c] z | z [GB] z | z [GB] z | z [A=c]2 | %125
 z [DB][D=c] | [DB] z2 | z [G=c] z | z [G=c] z | z [G=c] z | z [GB] z | z [GB] z | z [A=c] z | %133
 z [GB][F=c] | [GB] z [_Bc] | [Bd] z [F=c] | [GB] z [_Bc] | [Bd] z [=CF] | [B,G] z z | z3 | G,3 | %141
 z!pp! [A,D][A,D] | z [_B,D][B,D] | z [A,D][A,D] | z [_B,D][B,D] | z [A,D][A,D] | z [A,D][A,D] | %147
 z [A,D][A,D] | z [_B,D][B,D] | z [A,D][A,D] | z [_B,D][B,D] | z [A,D][A,D] | z [A,D][A,D] | %153
 z [CF][CF] | z [DF][DF] | z [DF][DF] | z [CF][CF] | z [DF][DF] | z [DF][DF] | z [B,E][B,E] | %160
 z [CE][CE] | z [CE][CE] | z [B,E][B,E] | z [CE][CE] | z [CE][CE] | z [CA][CA] | z [B,^G][A,=G] | %167
 z [A,F][A,=F] | z [B,E][B,E] | z [CE][CE] | z [CE][CE] | z [CA][CA] | z [B,^G][A,=G] | %173
 z [A,F][A,=F] | z [B,E][B,E] | z [CE][CE] | z [CE][CE] | z [A,D][A,D] | z [_B,E][B,E] | %179
 z [A,=F][A,F] | z [_D=F][DF] | z [A,=F][A,F] | z [A,=F][A,F] | z [A,=F][A,F] | z [EG][EG] | %185
 z [FA][FA] | z [A,G][A,G] | z/ [A,D]/ z/ [A,D]/ z | z [_B,D]2 | z/ [A,D]/ z/ [A,D]/ z | %190
 z [_B,D]2 | z/ [A,D]/ z/ [A,D]/ z | z [_B,D]2 | z/ [A,D]/ z/ [A,D]/ z | z [_B,D]2 | [A,D]3 | %196
 [G,E]3 | [A,D]3 | [G,E]3 | [A,D]3- | [A,D]3- | [A,D]3 | z3 | z3 |] %204
V:3
!pp! D,F,F, | D,G,G, | D,F,F, | D,G,G, || D,!pp!F,F, | D,G,G, | D,F,F, | D,G,G, | D,F,F, | D,F,F, | %10
 D,F,F, | D,G,G, | D,F,F, | D,G,G, | D,F,F, | D,F,F, | F,F,F, | F,B,B, | F,B,B, | E,^A,A, | %20
 D,B,B, | B,B,B, | E,^G,G, | E,A,A, | E,A,A, | D,^G,G, | C,A,A, | A,A,A, | A,EE | B,EC, | D,DD | %31
 E,DD | E,A,A, | E,A,A, | A,CC | B,DC, | D,DD | E,DD | E,A,A, | E,A,A, | D,=F,F, | =C,G,G, | %42
 =F,=CC | =F,_B,B, | =F,=CC | =F,=CC | D,DD | _B,DD | A,DD | A,CC | D,A,D | D,_B,E | D,A,D | %53
 D,_B,_E |"^pizz." [F,D] z2 | [F,D] z2 | [G,_E] z2 | [G,_E] z2 | [F,D] z2 | [F,D] z2 | [G,_E] z2 | %61
 [G,_E] z2 | [F,D] z2 | [F,D] z2 | [G,_E] z2 | [G,_E] z2 | [F,D] z2 | [F,D] z2 | [G,_E] z2 | %69
 [G,_E] z2 |"^arco" D,DA, | D,DA, | D,_E_B, | D,_E_B, | [DA] z2 | [DA] z2 | [DA] z2 | [DA] z2 | %78
 [DA] z2 | z3 | !fermata!z3 | z3 | G,G z | G,G z | G,G z | D,F z | D,F z | D,F z | G,G z | G,G z | %90
 =C,G z | =C,G z | =C,G z | G,G z | G,G z | =C,EC, | D,GF | [G,G] z2 | =C,G z | =C,G z | =C,G z | %101
 G,D z | G,D z | =C,E z | D,DD | G, z [_E,G,] | [D,G,] z D, | [G,D] z [_E,G,] | [D,G,] z [D,D] | %109
 G, z2 | z3 |!pp! G,D z | G,D z | G,D z | D,D z | D,D z | D,D z | G,D z | G,D z | =C,E z | =C,E z | %121
 =C,E z | G,D z | G,D z | =C,EC, | D,GF | [G,G] z2 | =C,E z | =C,E z | =C,E z | G,D z | G,D z | %132
 =C,EC, | D,DD | G, z [_E,G,] | [D,G,] z D, | [G,D] z [_E,G,] | [D,G,] z [D,D] | G, z z | z3 | %140
 G,3 |!pp! D,F,F, | D,G,G, | D,F,F, | D,G,G, | D,F,F, | D,F,F, | D,F,F, | D,G,G, | D,F,F, | %150
 D,G,G, | D,F,F, | D,F,F, | F,F,F, | F,B,B, | F,B,B, | E,^A,A, | D,B,B, | B,B,B, | E,^G,G, | %160
 E,A,A, | E,A,A, | D,^G,G, | C,A,A, | A,A,A, | A,EE | B,EC, | D,DD | E,DD | E,A,A, | E,A,A, | %171
 A,CC | B,DC, | D,DD | E,DD | E,A,A, | E,A,A, | D,=F,F, | =C,G,G, | =F,=CC | =F,_B,B, | =F,=CC | %182
 =F,=CC | D,DD | _B,DD | A,DD | A,CC | z/ F,/ z/ F,/ z | z [D,G,]2 | z/ F,/ z/ F,/ z | z [D,G,]2 | %191
 z/ F,/ z/ F,/ z | z [D,G,]2 | z/ F,/ z/ F,/ z | z [D,G,]2 | [F,A,]3 | [G,_B,]3 | [F,A,]3 | %198
 [G,_B,]3 | F,3- | F,3- | F,3 | z3 |"^pizz."!ppp! D,/ z/ z2 |] %204
V:4
!pp! D,, z2 | G,, z2 | D,, z2 | G,, z2 ||!pp! D,, z2 | G,, z2 | D,, z2 | G,, z2 | D,, z2 | D,, z2 | %10
 D,, z2 | G,, z2 | D,, z2 | G,, z2 | D,, z2 | D,, z2 | F,, z2 | B,, z2 | F,, z2 | F,, z2 | B,, z2 | %21
 B,, z2 | E,, z2 | A,, z2 | E,, z2 | E,, z2 | A,, z2 | A,, z2 | A,, z2 | A,, z z | A,, z2 | %31
 A,, z2 | A,, z2 | A,, z2 | A,, z2 | A,, z z | A,, z2 | A,, z2 | A,, z2 | A,, z2 | D, z2 | =C, z2 | %42
 =F,, z2 | _B,, z2 | =F,, z2 | =F, z2 | D, z2 | _B,, z2 | A,, z2 | A,, z2 | D,,3 | D,,3 | D,,3 | %53
 D,,3 |"^pizz." [D,,A,,] z2 | [D,,A,,] z2 | [D,,_B,,] z2 | [D,,_B,,] z2 | [D,,_B,,] z2 | %59
 [D,,A,,] z2 | [D,,A,,] z2 | [D,,_B,,] z2 | [D,,_B,,] z2 | [D,,A,,] z2 | [D,,_B,,] z2 | %65
 [D,,_B,,] z2 | [D,,A,,] z2 | [D,,A,,] z2 | [D,,_B,,] z2 | [D,,_B,,] z2 |"^arco" D,,3 | D,,3 | %72
 D,,3 | D,,3 | D,, z2 | D,, z2 | D,, z2 | D,, z2 | D,, z2 | z3 | !fermata!z3 | z3 | G,, z D, | %83
 G,, z D, | G,, z D, | D,, z D, | D,, z D, | D,, z D, | =G,, z =D, | G,, z G,, | =C,, z G,, | %91
 =C,, z G,, | =C,, z G,, | G,, z D, | G,, z G,, | =C,, z C,, | D,, z D,, | G,, z2 | =C,, z G,, | %99
 =C,, z G,, | =C,, z G,, | G,, z D, | G,, z G,, | =C,, z C,, | D,, z D,, | G,, z _E,, | D,, z D,, | %107
 G,, z _E,, | D,, z D,, | G,G,, z | z3 |!pp! G,, z D, | G,, z D, | G,, z D, | D,, z D, | D,, z D, | %116
 D,, z D, | G,, z D, | G,, z G,, | =C,, z G,, | =C,, z G,, | =C,, z G,, | G,, z D, | G,, z G,, | %124
 =C,, z C,, | D,, z D,, | G,, z2 | =C,, z G,, | =C,, z G,, | =C,, z G,, | G,, z D, | G,, z G,, | %132
 =C,, z C,, | D,, z D,, | G,, z _E,, | D,, z D,, | G,, z _E,, | D,, z D,, | G, z z | z3 | G,,3 | %141
!pp! D,, z2 | G,, z2 | D,, z2 | G,, z2 | D,, z2 | D,, z2 | D,, z2 | G,, z2 | D,, z2 | G,, z2 | %151
 D,, z2 | D,, z2 | F,, z2 | B,, z2 | F,, z2 | F,, z2 | B,, z2 | B,, z2 | E,, z2 | A,, z2 | E,, z2 | %162
 E,, z2 | A,, z2 | A,, z2 | A,, z2 | A,, z z | A,, z2 | A,, z2 | A,, z2 | A,, z2 | A,, z2 | %172
 A,, z z | A,, z2 | A,, z2 | A,, z2 | A,, z2 | D, z2 | =C, z2 | =F,, z2 | _B,, z2 | =F,, z2 | %182
 =F, z2 | D, z2 | _B,, z2 | A,, z2 | A,, z2 | D,,/ z/ A,,/ z/ D,/ z/ | G,,/ z/ D,,2 | %189
 D,,/ z/ A,,/ z/ D,/ z/ | G,,/ z/ D,,2 | D,,/ z/ A,,/ z/ D,/ z/ | G,,/ z/ D,,2 | %193
 D,,/ z/ A,,/ z/ D,/ z/ | G,,/ z/ D,,2 | D,,3- | D,,3 | D,,3- | D,,3 | D,,3- | D,,3- | D,,3 | z3 | %203
"^pizz."!ppp! D,,/ z/ z2 |] %204

